!!!!SEGMENT: pl-sa--67-a-ii-7--004_haydn-joseph--cassatio-in-es-presto.krn
!!!cenid: 17xx:573
!!!COM: Haydn, Joseph
!!!COM-rismid: pe55803
!!!CDT: 1732/03/31-1809/05/31
!!!CNT: Austrian
!!!OPR: Cassatio in Es
!!!OTL: Presto
!!!OMV: 004
!!!PDT:
!!!AGN: Secular; Cassation
!!!SMS-siglum: PL-SA
!!!SMS-shelfmark: 67/A II 7
!!!SMS-shelfwork: 001-004 M
!!!SMS-variant:
!!!SMS-altvar:
!!!NIFC-rismid: 1001076830
!!!URL-scan: http://bc.bdsandomierz.pl/dlibra/publication/1338/edition/1306/content
!!!ONB-nifc: UWAGA: części Cassatio: Allegro, Adagio, Menuet, Presto
**kern	**dynam	**kern	**dynam	**kern	**dynam	**kern	**dynam
*part4	*part4	*part3	*part3	*part2	*part2	*part1	*part1
*staff4	*	*staff3	*	*staff2	*	*staff1	*
*I"Baſso:	*	*I"Viola Obligata	*	*I"Violino 2do.	*	*I"Violino Prymo	*
*I'basso	*	*I'vla	*	*I'vl 2	*	*I'vl 1	*
*clefF4	*	*clefC3	*	*clefG2	*	*clefG2	*
*k[b-e-a-]	*	*k[b-e-a-]	*	*k[a-e-b-]	*	*k[a-e-b-]	*
*E-:	*	*E-:	*	*E-:	*	*E-:	*
*M2/4	*	*M2/4	*	*M2/4	*	*M2/4	*
*all\right	*	*all\right	*	*	*	*all\right	*
!LO:TX:a:t=P:problem:bemole BB- E- A-	!	!LO:TX:a:t=P:problem:bemole A- e- b-, jeden nad drugim	!	!	!	!	!
!LO:TX:a:t=Presto	!	!LO:TX:a:t=Presto	!	!LO:TX:a:B:t=Presto	!	!LO:TX:a:t=Presto	!
8r	.	8r	.	8r	.	8b-\	.
=1	=1	=1	=1	=1	=1	=1	=1
!LO:TX:a:t=1.	!	!LO:TX:a:t=1	!	!LO:TX:a:t=1	!	!	!
2r	.	2r	.	2r	.	8ee-\L|	.
.	.	.	.	.	.	8b-\|	.
.	.	.	.	.	.	8gg\|	.
.	.	.	.	.	.	8ee-\J|	.
=2	=2	=2	=2	=2	=2	=2	=2
4.B-\	.	4.b-\	.	(4ff\	.	(4aa-\	.
.	.	.	.	8dd\L)|	.	8ff\L)	.
8d\	.	8dd\	.	8dd\J|	.	8dd\J|	.
=3	=3	=3	=3	=3	=3	=3	=3
8e-\L	.	8ee-\L	.	8ee-\L	.	8ee-\L	.
8B-\	.	8b-\	.	8b-\	.	8b-\	.
8G\	.	8g\	.	8g\	.	8g\	.
8E-\J	.	8e-\J	.	8e-\J	.	8e-\J	.
=4	=4	=4	=4	=4	=4	=4	=4
4B-\	.	4b-\	.	4b-\	.	4b-\	.
4r	.	4r	.	4r	.	8r	.
.	.	.	.	.	.	8B-/	.
=5	=5	=5	=5	=5	=5	=5	=5
!	!	!LO:TX:a:t=1	!	!LO:TX:a:t=1	!	!	!
2r	.	2r	.	2r	.	8e-/L|	.
.	.	.	.	.	.	8B-/|	.
.	.	.	.	.	.	8g/|	.
.	.	.	.	.	.	8e-/J|	.
=6	=6	=6	=6	=6	=6	=6	=6
4.BB-/	.	4.B-/	.	(4f/	.	(4a-/	.
.	.	.	.	8d/L)	.	8f/L)|	.
8D/	.	8d/	.	8d/J|	.	8d/J|	.
=7	=7	=7	=7	=7	=7	=7	=7
8E-/L	.	8e-\L	.	8e-/L	.	8e-/L	.
8C/	.	8c\	.	8c/	.	8c/	.
8AA-/	.	8A-\	.	8A-/	.	8A-/	.
!	!	!	!	!LO:SIC:v:s=4B-	!	!LO:TX:a:t=b	!
8BB-/J	.	8B-\J	.	8G/J	.	8B-/J	.
=8	=8	=8	=8	=8	=8	=8	=8
4E-\	.	4e-\	.	4e-/	.	4e-/	.
4r	.	8r	.	4r	.	8r	.
.	.	8e-\	.	.	.	8gg\	.
=9	=9	=9	=9	=9	=9	=9	=9
4r	.	4d\	.	4r	.	8ff\L	.
.	.	.	.	.	.	8b-\	.
8r	.	8r	.	8r	.	8an\	.
8F\	.	8An/	.	8cc\	.	8ee-\J	.
!	!	!	!	!LO:LB:g=original	!	!	!
=10	=10	=10	=10	=10	=10	=10	=10
8B-\L	.	8B-/L	.	(4cc\	.	4ee-\	.
8F\J	.	8F/	.	.	.	.	.
4BB-/	.	8B-/	.	8b-\)	.	8dd\L	.
.	.	8e-/J	.	8r	.	8gg\J	.
!	!	!LO:LB:g=original	!	!	!	!LO:LB:g=original	!
=11	=11	=11	=11	=11	=11	=11	=11
4r	.	4d\	.	4r	.	8ff\L	.
.	.	.	.	.	.	8b-\	.
8r	.	8r	.	8r	.	8an\	.
8F\	.	8An/	.	8cc\	.	8ee-\J	.
=12	=12	=12	=12	=12	=12	=12	=12
8B-\L	.	8B-/	.	(4cc\	.	(4ee-'\	.
8F\J	.	4F/	.	.	.	.	.
4BB-/	.	.	.	8b-\)	.	8dd\L	.
.	.	8B-/	.	8r	.	8ff\J)	.
=13	=13	=13	=13	=13	=13	=13	=13
4B-\	.	8f\	.	4b- 4d/	.	8bb-'\L	.
.	.	8r	.	.	.	8ff'\	.
4B-\	.	8f\	.	4b- 4d/	.	8bb-'\	.
.	.	8r	.	.	.	8ff\J|	.
!LO:LB:g=original	!	!	!	!	!	!	!
=14	=14	=14	=14	=14	=14	=14	=14
!	!	!	!	!	!	!LO:TX:a:t=P:problem:mixed beam	!
4B-\	.	8f\	.	4b- 4d/	.	8bb-\L|	.
.	.	8r	.	.	.	8ff\|	.
8B-\L	.	8f\L	.	8b-L 8d/	.	8bb-\	.
8D\J	.	8d\J	.	8g/J	.	8d/J	.
=15	=15	=15	=15	=15	=15	=15	=15
8E-\L	.	8e-\L	.	8e-/L	.	8e-/L	.
8C\	.	8c\	.	8c/	.	8c/	.
8F\	.	8f\	.	8f/	.	8f/	.
8D\J	.	8d\J	.	8d/J	.	8d/J	.
=16	=16	=16	=16	=16	=16	=16	=16
4BB-/	.	4B-/	.	4B-/	.	4B-/	.
!	!	!	!	!	!LO:DY:a	!	!
4r	.	[<4dd-X\	p	[<4ff\	p	16f/LL	.
.	.	.	.	.	.	16f/	.
.	.	.	.	.	.	16f/	.
.	.	.	.	.	.	16f/JJ	.
=17	=17	=17	=17	=17	=17	=17	=17
!	!LO:DY:t=p&colon;	!	!	!	!	!	!
4An\	p	8dd-\]	.	8ff\]	.	16f/LL	.
.	.	.	.	.	.	16f/	.
.	.	4cc\	.	4ee-\	.	16f/	.
.	.	.	.	.	.	16f/JJ	.
4B-\	.	.	.	.	.	16f/LL	.
.	.	.	.	.	.	16f/	.
.	.	8b-\	.	[<8dd-X\	.	16f/	.
.	.	.	.	.	.	16f/JJ	.
=18	=18	=18	=18	=18	=18	=18	=18
4F\	.	8b-\L	.	8dd-\L]	.	16f/LL	.
.	.	.	.	.	.	16f/	.
.	.	8an\J	.	8cc\J	.	16f/	.
.	.	.	.	.	.	16f/JJ	.
4r	.	4dd-X\	.	4ff\	.	16f/LL	.
.	.	.	.	.	.	16f/	.
.	.	.	.	.	.	16f/	.
.	.	.	.	.	.	16f/JJ	.
=19	=19	=19	=19	=19	=19	=19	=19
4An\|	.	8dd-X\	.	8ff\	.	16f/LL	.
.	.	.	.	.	.	16f/	.
.	.	4cc\	.	4ee-\	.	16f/	.
.	.	.	.	.	.	16f/JJ	.
!	!	!	!	!	!	!LO:LB:g=original	!
4B-\|	.	.	.	.	.	16f/LL	.
.	.	.	.	.	.	16f/	.
.	.	8b-\	.	8dd-X\	.	16f/	.
.	.	.	.	.	.	16f/JJ	.
!	!	!LO:LB:g=original	!	!	!	!	!
=20	=20	=20	=20	=20	=20	=20	=20
!	!	!	!	!LO:SIC:v:s=8dd-	!	!	!
4F\	.	8b-\L	.	8dd\L	.	16f/LL	.
.	.	.	.	.	.	16f/	.
.	.	8an\J	.	8cc\J	.	16f/	.
.	.	.	.	.	.	16f/JJ	.
4r	.	[<4dd-X\	.	[4ff\	.	16f/LL	.
.	.	.	.	.	.	16f/	.
.	.	.	.	.	.	16f/	.
.	.	.	.	.	.	16f/JJ	.
=21	=21	=21	=21	=21	=21	=21	=21
4An\|	.	8dd-\]	.	8ff\]	.	16f/LL	.
.	.	.	.	.	.	16f/	.
.	.	4cc\	.	4ee-\	.	16f/	.
.	.	.	.	.	.	16f/JJ	.
4B-\|	.	.	.	.	.	16f/LL	.
.	.	.	.	.	.	16f/	.
.	.	[8b-\	.	[8dd-X\	.	16f/	.
.	.	.	.	.	.	16f/JJ	.
!	!	!	!	!LO:LB:g=original	!	!	!
=22	=22	=22	=22	=22	=22	=22	=22
!	!	!	!	!LO:TX:a:t=P:problem:brak zakończenia ligatury	!	!	!
4F\	.	8b-\L]	.	8dd-\L]	.	4f/	.
.	.	8an\J	.	8cc\J	.	.	.
4r	.	4r	.	4r	.	8r	.
!	!	!	!	!	!	!	!LO:DY:a:t=for
.	.	.	.	.	.	8ff\	f
=23	=23	=23	=23	=23	=23	=23	=23
!	!	!	!LO:DY:t=fo&colon;	!	!	!	!
4B-\	.	4f\	f	4b- 4d/	.	8bb-\L	.
.	.	.	.	.	.	8ff\	.
4B-\	.	4f\	.	4b- 4d/	.	8bb-\	.
.	.	.	.	.	.	8ff\J	.
=24	=24	=24	=24	=24	=24	=24	=24
4B-\	.	4f\	.	4b- 4d/	.	16bb-\LL	.
.	.	.	.	.	.	16aan\	.
.	.	.	.	.	.	16bb-\	.
.	.	.	.	.	.	16ccc\JJ	.
!	!	!	!	!	!	!LO:TX:a:t=P:problem:mixed beam	!
8r	.	8r	.	8r	.	8ddd\L	.
!LO:SIC:v:s=8D	!	!	!	!	!	!	!
8F\	.	8d\	.	8d/	.	8d/J	.
=25	=25	=25	=25	=25	=25	=25	=25
8E-\L	.	8e-\L	.	8e-/L	.	8e-/L	.
8F\	.	8f\	.	8f/	.	8f/	.
8G\	.	8g\	.	8g/	.	8g/	.
8An\J	.	8an\J	.	8an/J	.	8an/J	.
!	!	!	!	!	!	!LO:LB:g=original	!
=26	=26	=26	=26	=26	=26	=26	=26
16B-\LL	.	16b-\LL	.	16b-\LL	.	16b-\LL	.
16c\	.	16cc\	.	16cc\	.	16cc\	.
16d\	.	16dd\	.	16dd\	.	16dd\	.
16c\JJ	.	16cc\JJ	.	16cc\JJ	.	16cc\JJ	.
!	!	!	!	!LO:TX:a:t=P:problem:mixed beam	!	!LO:TX:a:t=P:problem:mixed beam	!
8B-\L	.	8b-\L	.	8b-\L	.	8b-\L	.
8D\J	.	8d\J	.	8d/J	.	8d/J	.
!LO:LB:g=original	!	!	!	!	!	!	!
=27	=27	=27	=27	=27	=27	=27	=27
4E-\	.	4e-\	.	4e-/	.	4e-/	.
!	!	!	!	!LO:SIC:v:n=3:s=An	!	!	!
4F\	.	4f\	.	4an 4e- 4A-/	.	4an 4e- 4c/	.
!	!	!LO:LB:g=original	!	!	!	!	!
=	=	=	=	=	=	=	=
4BB-/	.	4B-/	.	4b- 4f 4B-/	.	4b- 4d 4B-/	.
!LO:N:vis=4	!	!LO:N:vis=4	!	!LO:N:vis=4	!	!LO:N:vis=4	!
8r	.	8r	.	8r	.	8r	.
=28||	=28||	=28||	=28||	=28||	=28||	=28||;;	=28||
8r	.	8r	.	8r	.	8f/	.
=29	=29	=29	=29	=29	=29	=29	=29
!	!	!LO:TX:a:t=1	!	!	!	!	!
2r	.	2r	.	2r	.	8b-/L	.
.	.	.	.	.	.	8f/	.
.	.	.	.	.	.	8dd/	.
.	.	.	.	.	.	8b-/J	.
=30	=30	=30	=30	=30	=30	=30	=30
4.F\	.	4.f\	.	(4cc\	.	(4ee-\	.
!	!	!	!	!LO:TX:a:t=P:problem:♮above	!	!	!
.	.	.	.	8an\L)	.	8cc\L)	.
8An\	.	8an\	.	8a\J|	.	8an\J	.
=31	=31	=31	=31	=31	=31	=31	=31
8B-\L	.	8b-\L	.	8b-/L	.	8b-/L	.
8G\	.	8g\	.	8g/	.	8g/	.
8E-\	.	8e-\	.	8e-/	.	8e-/	.
8F\J	.	8f\J	.	8f/J	.	8f/J	.
=32	=32	=32	=32	=32	=32	=32	=32
4BB-/	.	4B-/	.	4B-/	.	4B-/	.
4r	.	4r	.	4r	.	8r	.
.	.	.	.	.	.	8b-\	.
=33	=33	=33	=33	=33	=33	=33	=33
!	!	!LO:TX:a:t=1	!	!	!	!	!
2r	.	2r	.	2r	.	8ee-\L|	.
.	.	.	.	.	.	8b-\|	.
.	.	.	.	.	.	8gg\|	.
.	.	.	.	.	.	8ee-\J|	.
=34	=34	=34	=34	=34	=34	=34	=34
4.B-\	.	4.b-\	.	(4ff\	.	(4aa-X\	.
.	.	.	.	8dd\L)	.	8ff\L)	.
8d\	.	8dd\	.	8dd\J|	.	8dd\J|	.
!	!	!	!	!LO:LB:g=original	!	!LO:LB:g=original	!
=35	=35	=35	=35	=35	=35	=35	=35
8e-\L	.	8ee-\L	.	8ee-\L	.	8ee-\L	.
8B-\	.	8b-\	.	8b-\	.	8b-\	.
8G\	.	8g\	.	8g\	.	8g\	.
8E-\J	.	8e-\J	.	8e-\J	.	8e-\J	.
=36	=36	=36	=36	=36	=36	=36	=36
!	!	!	!	!	!	!LO:N:vis=8	!
4B-\	.	4b-\	.	4b-\	.	4b-\	.
4r	.	4r	.	4r	.	8r	.
.	.	.	.	.	.	8gg\	.
=37	=37	=37	=37	=37	=37	=37	=37
!	!	!	!	!	!	!LO:TX:a:t=P:problem:mixed beam	!
8G\L	.	16e-\LL	.	16d-X/LL	.	8bb-\L	.
.	.	16e-\	.	16d-/	.	.	.
8G\	.	16e-\	.	16d-/	.	8e-/	.
.	.	16e-\JJ	.	16d-/JJ	.	.	.
8G\	.	16e-\LL	.	16d-/LL	.	8b-/	.
.	.	16e-\	.	16d-/	.	.	.
8G\J	.	16e-\	.	16d-/	.	8dd-X/J	.
.	.	16e-\JJ	.	16d-/JJ	.	.	.
!	!	!LO:LB:g=original	!	!	!	!	!
=38	=38	=38	=38	=38	=38	=38	=38
!	!	!	!	!	!	!LO:TX:a:t=P:problem:mixed beam	!
8A-\L	.	16e-\LL	.	16c/LL	.	8cc\L	.
.	.	16e-\	.	16c/	.	.	.
8A-\	.	16e-\	.	16c/	.	8e-/	.
.	.	16e-\JJ	.	16c/JJ	.	.	.
8A-\	.	16e-\LL	.	16c/LL	.	8A-/	.
.	.	16e-\	.	16c/	.	.	.
8A-\J	.	16e-\	.	16c/	.	8cc\J	.
.	.	16e-\JJ	.	16c/JJ	.	.	.
=39	=39	=39	=39	=39	=39	=39	=39
!	!	!	!	!	!	!LO:TX:a:t=P:problem:mixed beam	!
8En\L	.	16c\LL	.	16g/LL	.	8gg\L	.
.	.	16c\	.	16g/	.	.	.
8E\J	.	16c\	.	16g/	.	8c/	.
.	.	16c\JJ	.	16g/JJ	.	.	.
!LO:LB:g=original	!	!	!	!	!	!	!
8E\L	.	16c\LL	.	16g/LL	.	8g/	.
.	.	16c\	.	16g/	.	.	.
!	!	!	!	!	!	!LO:SIC:v:s=8b-	!
8E\J	.	16c\	.	16g/	.	8dd/J	.
.	.	16c\JJ	.	16g/JJ	.	.	.
=40	=40	=40	=40	=40	=40	=40	=40
!	!	!	!	!	!	!LO:TX:a:t=P:problem:mixed beam	!
8F\L	.	16c\LL	.	16a-/LL	.	8a-/L	.
.	.	16c\	.	16a-/	.	.	.
8F\	.	16c\	.	16a-/	.	8f/	.
.	.	16c\JJ	.	16a-/JJ	.	.	.
8F\	.	16c\LL	.	16a-/LL	.	8A-/	.
.	.	16c\	.	16a-/	.	.	.
8F\J	.	16c\	.	16a-/	.	8ff\J	.
.	.	16c\JJ	.	16a-/JJ	.	.	.
=41	=41	=41	=41	=41	=41	=41	=41
8F\L	.	16d\LL	.	16a-/LL	.	16ff\LL	.
.	.	16d\	.	16a-/	.	16gg\	.
8F\	.	16d\	.	16a-/	.	16ff\	.
.	.	16d\JJ	.	16a-/JJ	.	16gg\JJ	.
8F\	.	16c\LL	.	16a-/LL	.	8aa-\L	.
.	.	16c\	.	16a-/	.	.	.
8F\J	.	16c\	.	16a-/	.	8cc\J	.
.	.	16c\JJ	.	16a-/JJ	.	.	.
=42	=42	=42	=42	=42	=42	=42	=42
!	!	!	!	!	!LO:DY:a	!	!LO:DY:a:t=pi&colon;
4G\	.	4G/	.	4g/	p	16bn/LL	p
.	.	.	.	.	.	16g/	.
.	.	.	.	.	.	16g/	.
.	.	.	.	.	.	16g/JJ	.
!	!	!	!LO:DY:t=po&colon;	!	!	!	!
4r	.	[<4ee-\	p	[4gg\	.	16g/LL	.
.	.	.	.	.	.	16g/	.
.	.	.	.	.	.	16g/	.
.	.	.	.	.	.	16g/JJ	.
!	!	!	!	!LO:LB:g=original	!	!LO:LB:g=original	!
=43	=43	=43	=43	=43	=43	=43	=43
!	!	!	!	!LO:TX:a:t=P:problem:brak zakończenia ligatury	!	!	!
4Bn\	.	8ee-\]	.	8gg\]	.	16g/LL	.
.	.	.	.	.	.	16g/	.
.	.	4dd\	.	4ff\	.	16g/	.
.	.	.	.	.	.	16g/JJ	.
4c\	.	.	.	.	.	16g/LL	.
.	.	.	.	.	.	16g/	.
.	.	8cc\	.	8ee-\	.	16g/	.
.	.	.	.	.	.	16g/JJ	.
!	!	!LO:LB:g=original	!	!	!	!	!
=44	=44	=44	=44	=44	=44	=44	=44
4G\	.	8cc\L	.	8ee-\	.	16g/LL	.
.	.	.	.	.	.	16g/	.
.	.	8bn\J	.	4dd\	.	16g/	.
.	.	.	.	.	.	16g/JJ	.
4r	.	[4e-\	.	.	.	16g/LL	.
.	.	.	.	.	.	16g/	.
.	.	.	.	8g/	.	16g/	.
.	.	.	.	.	.	16g/JJ	.
=45	=45	=45	=45	=45	=45	=45	=45
4BBn/	.	8e-\]	.	8g/	.	16g/LL	.
.	.	.	.	.	.	16g/	.
.	.	4d\	.	4f/	.	16g/	.
.	.	.	.	.	.	16g/JJ	.
4C/	.	.	.	.	.	16g/LL	.
.	.	.	.	.	.	16g/	.
.	.	8c\	.	8e-/	.	16g/	.
.	.	.	.	.	.	16g/JJ	.
=46	=46	=46	=46	=46	=46	=46	=46
!LO:TX:a:t=g	!	!	!	!	!	!	!
4BB- 4GG/	.	8Bn/	.	8d/	.	8g/	.
.	.	8r	.	8r	.	8r	.
4r	.	4r	.	4r	.	8r	.
.	.	.	.	.	.	8g/	.
=47	=47	=47	=47	=47	=47	=47	=47
!LO:TX:a:t=3	!	!	!	!	!	!	!
!LO:N:vis=0	!	!	!	!	!	!	!
1r	.	8e-\L	.	8g/L	.	4cc\	.
.	.	8e-\	.	8g/	.	.	.
.	.	8e-\	.	8g/	.	(8.cc\L	.
.	.	8e-\J	.	8g/J	.	.	.
.	.	.	.	.	.	32dd\LL	.
.	.	.	.	.	.	32ee-\JJJ)	.
=48	=48	=48	=48	=48	=48	=48	=48
.	.	8f\L	.	8a-\L	.	4dd\	.
.	.	8f\	.	8a-\	.	.	.
.	.	8f\	.	8a-\	.	8r	.
.	.	8f\J	.	8ff\J	.	8aa-\	.
=49	=49	=49	=49	=49	=49	=49	=49
2r	.	8g\L	.	8ee-\L	.	8gg\L|	.
.	.	8g\	.	8dd\	.	8ff\|	.
.	.	8g\	.	8cc\	.	8ee-\|	.
.	.	8g\J	.	8bn\J	.	8dd\J|	.
=50	=50	=50	=50	=50	=50	=50	=50
4r	.	4c\	.	4cc\	.	4cc\	.
8r	.	8r	.	8r	.	8r	.
!	!	!	!	!	!	!LO:SIC:v:s=8g	!
8G\	.	8g\	.	8g/	.	8a-/	.
!	!	!	!	!	!	!LO:LB:g=original	!
=51	=51	=51	=51	=51	=51	=51	=51
!	!	!	!	!	!	!	!LO:DY:a
8c\L	.	8cc\L	.	8cc\L	.	8cc\L|	f
8G\	.	8g\	.	8g\	.	8g\|	.
8e-\	.	8ee-\	.	8ee-\	.	8ee-\|	.
!	!	!	!	!LO:TX:a:t=P:problem:♮above	!	!	!
8Bn\J	.	8bn\J	.	8bn\J	.	8bn\J|	.
!	!	!LO:LB:g=original	!	!	!	!	!
=52	=52	=52	=52	=52	=52	=52	=52
4c\	.	4cc\	.	4cc\	.	4cc\	.
8r	.	8r	.	8r	.	8r	.
8G\	.	8g\	.	8g/	.	8g/	.
=53	=53	=53	=53	=53	=53	=53	=53
8c\L	.	8cc\L	.	8cc\L	.	8cc/L	.
8G\	.	8g\	.	8g\	.	8g/	.
8E-\	.	8e-\	.	8e-\	.	8e-/	.
8C\J	.	8c\J	.	8c\J	.	8c/J	.
!LO:LB:g=original	!	!	!	!	!	!	!
=54	=54	=54	=54	=54	=54	=54	=54
4G\	.	4g\	.	4g/	.	4g/	.
4r	.	4r	.	4r	.	8r	.
.	.	.	.	.	.	8b-X\	.
!	!	!	!	!LO:LB:g=original	!	!	!
=55	=55	=55	=55	=55	=55	=55	=55
!	!	!LO:TX:a:t=1	!	!	!	!	!
2r	.	2r	.	2r	.	8ee-\L	.
.	.	.	.	.	.	8b-\	.
.	.	.	.	.	.	8gg\	.
.	.	.	.	.	.	8ee-\J	.
=56	=56	=56	=56	=56	=56	=56	=56
4.B-\	.	4.b-\	.	4ff\	.	(4aa-\	.
.	.	.	.	8dd\L	.	8ff\L)	.
8B-\	.	8b-\	.	8a-\J	.	8dd\J|	.
=57	=57	=57	=57	=57	=57	=57	=57
4E-\	.	4e-\	.	8g/L	.	8ee-\L	.
.	.	.	.	8g/	.	8b-\	.
8r	.	8r	.	8f/	.	8a-\	.
8E-\	.	8e-\	.	8e-/J	.	8g\J	.
=58	=58	=58	=58	=58	=58	=58	=58
!LO:TX:a:t=P:problem:mixed beam	!	!LO:TX:a:t=P:problem:mixed beam	!	!	!	!	!
8B-\L	.	8b-\L	.	8d/L	.	8f/L	.
8BB-/J	.	8B-/J	.	8B-/J	.	8B-/J	.
4r	.	4r	.	4r	.	8r	.
.	.	.	.	.	.	8cc\	.
=59	=59	=59	=59	=59	=59	=59	=59
*	*	*	*	*	*	*^	*
4r	.	4r	.	4r	.	8b-/L	4ryy	.
.	.	.	.	.	.	8e-/	.	.
8r	.	8r	.	8r	.	8d/	8ryy	.
8BB-/	.	8d\	.	8f/	.	8cc/J	8a-\	.
*	*	*	*	*	*	*v	*v	*
=60	=60	=60	=60	=60	=60	=60	=60
8E-\L	.	8e-\L	.	(4f/	.	(4a-/	.
8BB-\J	.	8B-\J	.	.	.	.	.
4E-\	.	4E-/	.	8e-/)	.	8g/L)	.
.	.	.	.	8r	.	8cc/J	.
!	!	!	!	!	!	!LO:LB:g=original	!
=61	=61	=61	=61	=61	=61	=61	=61
4r	.	4r	.	4r	.	8b-\L	.
!	!	!	!	!	!	!LO:TX:a:t=e	!
.	.	.	.	.	.	8ee-\	.
8r	.	8r	.	8r	.	8dd\	.
8BB-/	.	8d\	.	[8ff\	.	8aa-\J	.
=62	=62	=62	=62	=62	=62	=62	=62
8E-\L	.	8e-\L	.	4ff\]	.	4aa-\	.
8BB-\J	.	8B-\J	.	.	.	.	.
4E-\	.	4E-/	.	8ee-\	.	8gg\L	.
.	.	.	.	8r	.	16bb-\L	.
.	.	.	.	.	.	16gg\JJ	.
!	!	!LO:LB:g=original	!	!	!	!	!
=63	=63	=63	=63	=63	=63	=63	=63
4E-\	.	4B-/	.	4e- 4G/	.	8ee-\L	.
.	.	.	.	.	.	8b-\	.
4E-\	.	4B-/	.	4e- 4G/	.	8ee-\	.
.	.	.	.	.	.	8b-\J	.
=64	=64	=64	=64	=64	=64	=64	=64
!	!	!	!	!	!	!LO:TX:a:t=P:problem:mixed beam	!
4E-\	.	4B-/	.	4e- 4G/	.	8ee-\L	.
.	.	.	.	.	.	8b-\	.
!	!	!LO:TX:a:t=P:problem:mixed beam	!	!	!	!	!
8E-\L	.	8B-/L	.	8e-L 8G/	.	8ee-\	.
8G\J	.	8g\J	.	8g/J	.	8g/J	.
=65	=65	=65	=65	=65	=65	=65	=65
8A-\L	.	8a-\L	.	8a-/L	.	8a-/L	.
8F\	.	8f\	.	8f/	.	8f/	.
8B-\	.	8b-\	.	8b-/	.	8b-/	.
!LO:SIC:v:s=4G	!	!	!	!	!	!	!
8A-\J	.	8g\J	.	8g/J	.	8g/J	.
=66	=66	=66	=66	=66	=66	=66	=66
4E-\	.	4e-\	.	4e-/	.	4e-/	.
!	!	!	!	!	!	!	!LO:DY:a:t=pi&colon;
4r	.	[4g-X\	.	4b-\	.	16B-/LL	p
.	.	.	.	.	.	16B-/	.
.	.	.	.	.	.	16B-/	.
.	.	.	.	.	.	16B-/JJ	.
!LO:LB:g=original	!	!	!	!	!	!	!
=67	=67	=67	=67	=67	=67	=67	=67
!	!	!	!	!	!LO:DY:a	!	!
4d\	.	8g-\]	.	8b-\	p	16B-/LL	.
.	.	.	.	.	.	16B-/	.
.	.	4f\	.	4a-/	.	16B-/	.
.	.	.	.	.	.	16B-/JJ	.
4e-\	.	.	.	.	.	16B-/LL	.
.	.	.	.	.	.	16B-/	.
.	.	[8e-\	.	[8g-X/	.	16B-/	.
.	.	.	.	.	.	16B-/JJ	.
!	!	!	!	!LO:LB:g=original	!	!	!
=68	=68	=68	=68	=68	=68	=68	=68
!	!	!	!	!LO:TX:a:t=P:problem:brak zakończenia ligatury	!	!	!
4B-\	.	8e-\L]	.	8g-/L]	.	16B-/LL	.
.	.	.	.	.	.	16B-/	.
.	.	8d\J	.	8f/J	.	16B-/	.
.	.	.	.	.	.	16B-/JJ	.
!	!	!LO:TX:a:t=P:problem:♭above	!	!	!	!	!
4r	.	[4g-X\	.	4b-\	.	16B-/LL	.
.	.	.	.	.	.	16B-/	.
.	.	.	.	.	.	16B-/	.
.	.	.	.	.	.	16B-/JJ	.
!	!	!	!	!	!	!LO:LB:g=original	!
=69	=69	=69	=69	=69	=69	=69	=69
4D\	.	8g-\]	.	8b-\	.	16B-/LL	.
.	.	.	.	.	.	16B-/	.
.	.	4f\	.	4a-/	.	16B-/	.
.	.	.	.	.	.	16B-/JJ	.
4E-\	.	.	.	.	.	16B-/LL	.
.	.	.	.	.	.	16B-/	.
.	.	8e-\	.	[8g-X/	.	16B-/	.
.	.	.	.	.	.	16B-/JJ	.
=70	=70	=70	=70	=70	=70	=70	=70
4BB-/	.	8e-\L	.	8g-/L]	.	16B-/LL	.
.	.	.	.	.	.	16B-/	.
.	.	8d\J	.	8f/J	.	16B-/	.
.	.	.	.	.	.	16B-/JJ	.
4r	.	[4g-X\	.	[4b-\	.	16B-/LL	.
.	.	.	.	.	.	16B-/	.
.	.	.	.	.	.	16B-/	.
.	.	.	.	.	.	16B-/JJ	.
=71	=71	=71	=71	=71	=71	=71	=71
4D\	.	8g-\]	.	8b-\]	.	16B-/LL	.
.	.	.	.	.	.	16B-/	.
.	.	4f\	.	4a-/	.	16B-/	.
.	.	.	.	.	.	16B-/JJ	.
4E-\	.	.	.	.	.	16B-/LL	.
.	.	.	.	.	.	16B-/	.
.	.	8e-\	.	[8g-X/	.	16B-/	.
!	!	!	!	!	!	!LO:TX:a:t=P:problem:wykreślony takt z dopiskiem "Zyd Sandomierski"	!
.	.	.	.	.	.	16B-/JJ	.
!	!	!LO:LB:g=original	!	!	!	!	!
=72	=72	=72	=72	=72	=72	=72	=72
4BB-/	.	8e-\L	.	8g-/L]	.	4B-/	.
.	.	8d\J	.	8f/J	.	.	.
!	!	!	!	!	!	!	!LO:DY:a
4r	.	4r	.	4r	.	8r	f
.	.	.	.	.	.	8b-\	.
=73	=73	=73	=73	=73	=73	=73	=73
!	!	!	!LO:DY:t=fo&colon;	!	!	!	!
4E-\|	.	4e-\	f	4e- 4G/	.	8ee-\L	.
.	.	.	.	.	.	8b-\	.
4E-\|	.	4e-\	.	4e- 4G/	.	8ee-\	.
.	.	.	.	.	.	8b-\J	.
=74	=74	=74	=74	=74	=74	=74	=74
4E-\	.	4e-\	.	4e- 4G/	.	16ee-\LL	.
.	.	.	.	.	.	16dd\	.
.	.	.	.	.	.	16ee-\	.
.	.	.	.	.	.	16ff\JJ	.
!	!	!	!	!	!	!LO:LB:g=original	!
!	!	!	!	!	!	!LO:TX:a:t=P:problem:mixed beam	!
8r	.	8r	.	8r	.	8gg\L	.
!	!	!LO:SIC:v:s=8G	!	!	!	!	!
8GG/	.	8A-/	.	8G/	.	8G/J	.
=75	=75	=75	=75	=75	=75	=75	=75
8AA-/L	.	8A-/L	.	8A-/L	.	8A-/L|	.
8BB-/	.	8B-/	.	8B-/	.	8B-/|	.
8C/	.	8c/	.	8c/	.	8c/|	.
8D/J	.	8d/J	.	8d/J	.	8d'/J	.
=76	=76	=76	=76	=76	=76	=76	=76
16E-\LL	.	16e-\LL	.	16e-/LL	.	16e-/LL	.
16F\	.	16f\	.	16f/	.	16f/	.
16G\	.	16g\	.	16g/	.	16g/	.
16F\JJ	.	16f\JJ	.	16f/JJ	.	16f/JJ	.
!LO:TX:a:t=P:problem:mixed beam	!	!LO:TX:a:t=P:problem:mixed beam	!	!	!	!	!
8E-\L	.	8e-\L	.	8e-/L	.	8e-/L	.
8GG/J	.	8G/J	.	8G/J	.	8G/J	.
=77	=77	=77	=77	=77	=77	=77	=77
*	*	*	*	*^	*	*	*
4AA-/	.	4A-/	.	4A-/	4ryy	.	4A-/	.
4BB-/	.	4B-/	.	4d/	4A-\	.	4d 4A-/	.
=78	=78	=78	=78	=78	=78	=78	=78	=78
4E-\	.	4e-\	.	4e-/	4G\	.	4e- 4G/	.
4r	.	4r	.	8r	4ryy	.	8r	.
.	.	.	.	8r	.	.	8ryy	.
*	*	*	*	*v	*v	*	*	*
==;;	==	==;;	==	==;;	==	==	==
*-	*-	*-	*-	*-	*-	*-	*-
!!!system-decoration: [(s1,s2,s3,s4)]
!!!RDF**kern: < = below
!!!RDF**dynam: p = "pia"
!!!RDF**dynam: f = "for:"
!!!ENC: Marta Lawrence
!!!END: 2020-11-26
!!!ENC: Andrzej Borzym
!!!END: 2020-05-26
!!!RDF**kern: | = vertical stroke
